Numix-GalliumOS/32/actions/package-available.svg

<?xml version="1.0" encoding="UTF-8" standalone="no"?>
<svg
   xmlns:dc="http://purl.org/dc/elements/1.1/"
   xmlns:cc="http://creativecommons.org/ns#"
   xmlns:rdf="http://www.w3.org/1999/02/22-rdf-syntax-ns#"
   xmlns:svg="http://www.w3.org/2000/svg"
   xmlns="http://www.w3.org/2000/svg"
   xmlns:sodipodi="http://sodipodi.sourceforge.net/DTD/sodipodi-0.dtd"
   xmlns:inkscape="http://www.inkscape.org/namespaces/inkscape"
   width="32"
   height="32"
   viewBox="0 0 32 32"
   id="svg2"
   version="1.1"
   inkscape:version="0.91 r"
   sodipodi:docname="package-available.svg">
  <metadata
     id="metadata18">
    <rdf:RDF>
      <cc:Work
         rdf:about="">
        <dc:format>image/svg+xml</dc:format>
        <dc:type
           rdf:resource="http://purl.org/dc/dcmitype/StillImage" />
      </cc:Work>
    </rdf:RDF>
  </metadata>
  <defs
     id="defs16" />
  <sodipodi:namedview
     pagecolor="#ffffff"
     bordercolor="#666666"
     borderopacity="1"
     objecttolerance="10"
     gridtolerance="10"
     guidetolerance="10"
     inkscape:pageopacity="0"
     inkscape:pageshadow="2"
     inkscape:window-width="801"
     inkscape:window-height="480"
     id="namedview14"
     showgrid="false"
     inkscape:zoom="7.375"
     inkscape:cx="16"
     inkscape:cy="16"
     inkscape:window-x="0"
     inkscape:window-y="30"
     inkscape:window-maximized="0"
     inkscape:current-layer="svg2" />
  <path
     style="fill:#c19553"
     d="M 2 0 C 1.128906 0 0 1.128906 0 2 L 0 28 C 0 28.824219 1.175781 30 2 30 L 28 30 C 28.824219 30 30 28.824219 30 28 L 30 2 C 30 1.175781 28.824219 0 28 0 Z "
     id="path4" />
  <g
     style="fill:#fff"
     id="g6">
    <path
       style="fill-opacity:.196"
       d="M 2 0 C 1.128906 0 0 1.128906 0 2 L 0 10 C 3.386719 10 26.613281 10 30 10 L 30 2 C 30 1.175781 28.824219 0 28 0 Z "
       id="path8" />
    <path
       style="fill-opacity:.392"
       d="M 12 4 L 12 16 L 18 16 L 18 4 Z "
       id="path10" />
  </g>
</svg>

<svg xmlns="http://www.w3.org/2000/svg" viewBox="0 0 32 32">
 <path d="m 2 0 c -0.871 0 -2 1.129 -2 2 l 0 26 c 0 0.824 1.176 2 2 2 l 26 0 c 0.824 0 2 -1.176 2 -2 l 0 -26 c 0 -0.824 -1.176 -2 -2 -2 Z" style="fill:#c19553"/>
 <g style="fill:#fff">
  <path d="m 2 0 c -0.871 0 -2 1.129 -2 2 l 0 8 c 3.387 0 26.613 0 30 0 l 0 -8 c 0 -0.824 -1.176 -2 -2 -2 Z" style="fill-opacity:0.196"/>
  <path d="m 12 4 l 0 12 l 6 0 l 0 -12 Z" style="fill-opacity:0.392"/>
 </g>
</svg>
